X:1
T:Title
%%score { 1 | 2 }
L:1/8
M:3/4
K:G
V:1 treble nm="Grand Piano"
V:2 treble 
V:1
 z2 z2[Q:1/4=100] G>B | d3 d e>d | d2 B2 G>[GB] | D3 [Fc] [GB][FA] | G4 G>B | d3 d e>d | %6
 d2 B2 G>[GB] | D3 [Fc] [GB][FA] |[M:2/4] G4 |[M:1/4] BB |[M:3/4] [FA]3 [GB] [Ac][FA] | %11
 [GB][Bd] z2 [GB][GB] | [FA]3 [GB] [Ac][FA] | [GB][Bd] z2 Bd | e3 e ce | d2 B2 G>[GB] | %16
 D3 [Fc] [GB][FA] |[M:2/4] [DG]4 |] %18
V:2
 z2 z2 [G,B,]>[G,DG] | [G,B,G]3 [G,B,G] [G,CG]>[G,B,G] | [G,B,G]2 [G,DG]2[K:bass] [G,B,]>[B,,G,] | %3
 [D,F,]3 [D,A,] [D,G,][D,C] | [G,B,D]4 [G,B,]>[K:treble][G,DG] | [G,B,G]3 [G,B,G] [G,CG]>[G,B,G] | %6
 [G,B,G]2 [G,DG]2[K:bass] [G,B,]>[B,,G,] | [D,F,]3 [D,A,] [D,G,][D,C] |[M:2/4][K:treble] [G,B,D]4 | %9
[M:1/4] [G,DG][G,G] |[M:3/4][K:bass] [D,D]3 [D,D] [D,D][D,D] | [G,D][G,D] z2 [G,D][G,D] | %12
 [D,D]3 [D,D] [D,D][D,D] | [F,D][G,D] z2[K:treble] [G,DG][G,B,G] | [CG]3 [CG] [CEG][CG] | %15
 [G,B,G]2 [G,DG]2[K:bass] [G,B,]>[B,,G,] | [D,F,]3 [D,A,] [D,G,][D,C] |[M:2/4] [G,B,]4 |] %18

